!!!!SEGMENT: pl-wtm--iii-42-033--001_kamienski-antoni--marie-valses-valse-1.krn
!!!cenid: 18xx:4354
!!!COM: Kamieński, Antoni
!!!COM-rismID: pe50045389
!!!CDT:
!!!CNT: Polish
!!!GTL: Marie-valses
!!!OTL: Valse 1.
!!!OMV: 001
!!!PDT:
!!!AGN:
!!!SMS-siglum: PL-Wtm
!!!SMS-shelfmark: III.42.033
!!!SMS-shelfwork: 001-001 G
!!!SMS-variant:
!!!SMS-altvar:
!!!NIFC-rismSourceID: 1001136606
!!!NIFC-rismChildID: 1001136607
!!!NIFC-islandoraID: pl-wtm:23979
!!!URL-pdf-islandora: https://repozytorium.nifc.pl/islandora/object/pl-wtm:23979/datastream/PDF/view
!!!URL-scan: https://polish.musicsources.pl/pl/lokalizacje/galeria/druki-muzyczne/17856/2 @EN{Scan on Polish Music Sources Website} @PL{Skany w portalu Dziedzictwo Muzyki Polskiej w otwartym dostępie}
!!!ONB-nifc: UWAGA: skany 2-3. Valse 1. razem z Introdukcją ze skanu 2
!!!AIN: 2 piano
!!!key: E
!!!OMD: Jntroduction Moderato
**kern	**kern	**dynam
*part2	*part1	*part1
*staff2	*staff1	*
*>[A,B,B,C,C1,C,C2]	*>[A,B,B,C,C1,C,C2]	*>[A,B,B,C,C1,C,C2]
*>A	*>A	*>A
*I"PIANO	*I"PIANO	*
*Ipiano	*Ipiano	*
*ICklav	*ICklav	*
*clefF4	*clefG2	*
*k[f#c#g#d#]	*k[f#c#g#d#]	*
*E:	*E:	*
*M6/8	*M6/8	*
=1	=1	=1
!	!	!LO:DY:rj:t=p.
8.BB\L	8.B/L	p
16C#\K	16c#/K	.
8.D#\	8.d#/	.
16E\K	16e/K	.
8.F#\	8.f#/	.
16BB\Jk	16B/Jk	.
=2	=2	=2
4F#\	4f#/	.
4.Gn\	4.gn/	>
8D#\	8d#/	]
=3	=3	=3
4E\	4g#/	.
4E 4EE/	4ee 4gn 4e\	>
4BB 4BBB;/	4dd# 4f# 4d#;\	]
=4	=4	=4
4.A 4.F# 4.D# 4.BB\	4b 4B|/	<
.	8cc# 8c#|/	.
4r	4dd# 4d#|/	.
8r	8ee 8e|/	[
=5	=5	=5
4.A 4.F# 4.D# 4.BB\	4.ff# 4.f#\	.
4r	4gg# 4g#\	>
8r	8dd# 8d#/	]
=6	=6	=6
4B 4G# 4E\	4ee 4e/	.
4B 4G# 4E\	4.bb 4.b\	>
4r	.	.
.	8cccn 8an\	]
!!LO:LB:g=original
=7	=7	=7
!	!LO:N:vis=4.	!
8AA\L	4ddd# 4dd#\	>
8C#\	.	.
8F#\J	8ccc# 8cc#\	.
!	!LO:N:vis=4.	!
8C#\L	4aa 4a\	.
8F#\	.	.
8A\J	8ff# 8f#\	]
=8	=8	=8
8E\L	4.ee 4.e\	.
8G#\	.	.
8B\J	.	.
8G#\L	(8eeL 8e\	.
8G#\	16ff#L 16f#\	.
.	16ee 16e\	.
8B\J	16dd# 16d#\	.
.	16eeJJ 16e\)	.
=9	=9	=9
8BB\L	4gg# 4g#\	>
8A\	.	.
8B\J	8ff# 8f#\	]
!	!	!LO:DY:t=pp.
4.B 4.G# 4.E\	4.ee 4.e\	pp
=10	=10	=10
2f# 2d# 2B 2A\	2bTT\	.
4e 4B 4G# 4E\	4ee 4g#\	.
*clefG2	*	*
=11	=11	=11
*clefG2	*	*
2aa 2ff# 2dd# 2b\	2bbTT\	.
4ee 4b 4g# 4e/	4eee 4gg#\	.
*clefF4	*	*
=12	=12	=12
*	*Xtuplet	*
*	*rscale:1/2	*
4e\	24eee\LL	.
.	24ee\	.
.	24eee\	.
.	24ee\	.
.	24eee\	.
.	24ee\JJ	.
*	*rep	*
4E\	24eee\LLL	.
.	24ee\	.
.	24eee\	.
.	24ee\	.
.	24eee\	.
.	24ee\JJJ	.
*	*Xrep	*
*	*rep	*
4EE/	24eee\LLL	.
.	24ee\	.
.	24eee\	.
.	24ee\	.
.	24eee\	.
.	24ee\JJJ	.
*	*Xrep	*
*	*rscale:1	*
!!LO:LB:g=original
=13!|:	=13!|:	=13!|:
*>B	*>B	*>B
*M3/4	*M3/4	*
*	*tuplet	*
!	!LO:TX:a:t=VALSE 1.	!
!	!LO:TUP:a:problem:klamra łukowa	!
4E\	12gg#\L	f
.	12aa\	.
.	12gg#\J	.
4g# 4e 4B\	4ff#\	.
4g# 4e 4B\	4gg#\	.
=14	=14	=14
!	!	!LO:DY:t=rf.
4BB/	2bb^^\	rfz
4a 4f# 4d# 4B\	.	.
4a 4f# 4d# 4B\	4r	.
=15	=15	=15
!	!LO:TUP:a:problem:klamra łukowa	!
4D#/	12ff#\L	.
.	12gg#\	.
.	12ff#\J	.
4f# 4B 4A\	8ee#X\	.
.	8r	.
4f# 4B 4A\	8ff#\	.
.	8r	.
=16	=16	=16
!	!	!LO:DY:t=rf
4BB/	2bb^^\	rfz
4a 4f# 4d# 4B\	.	.
4a 4f# 4d# 4B\	4r	.
=17	=17	=17
!	!LO:TUP:a:problem:klamra łukowa	!
4D#/	12b\L	.
.	12cc#\	.
.	12b\J	.
4f# 4B 4A\	8a#X\	.
.	8r	.
4f# 4B 4A\	8b\	.
.	8r	.
!!LO:LB:g=original
=18	=18	=18
4BB/	4dd#\	.
4d# 4B 4A 4F#\	4.gg#\	>
4d# 4B 4A 4F#\	.	.
.	8ff#\	]
=19	=19	=19
!	!LO:TUP:a:problem:klamra łukowa	!
4E\	12ff#\L	.
.	12gg#\	.
.	12ff#\J	.
4e 4B 4G#\	4ee\	.
4e 4B 4G#\	4dd#\	.
=20	=20	=20
4G#\	2ff#\	>
4e 4B\	.	]
4e 4B\	4ee\	.
=21	=21	=21
!	!LO:TUP:a:problem:klamra łukowa	!
4C#/	12ee\L	.
.	12ff#\	.
.	12ee\J	.
4e 4c# 4G#\	4dd#\	.
4e 4c# 4G#\	4ee\	.
=22	=22	=22
!	!	!LO:DY:t=rf
4C#/	2eee 2ee\	rfz
4c# 4G# 4E\	.	.
4c# 4G# 4E\	4r	.
=23	=23	=23
!	!LO:TUP:a:problem:klamra łukowa	!
4AA/	12cc#\L	.
.	12dd#\	.
.	12cc#\J	.
4A 4F# 4C#\	8b#X\	.
.	8r	.
4A 4F# 4C#\	8cc#\	.
.	8r	.
!!LO:LB:g=original
=24	=24	=24
4AA/	2ccc# 2cc#^^\	.
4A 4F# 4C#\	.	.
4A 4F# 4C#\	4r	.
=25	=25	=25
4D#/	8bb 8b\	.
.	8r	.
4f# 4B 4A\	8bb#X 8b#X\	.
.	8r	.
4f# 4B 4A\	8ccc# 8cc#\	.
.	8r	.
=26	=26	=26
4G#\	8ccc# 8cc#\	.
.	8r	.
4d# 4B 4A\	8dddn 8ddn\	.
.	8r	.
4d# 4B 4A\	8ddd#X 8dd#X\	.
.	8r	.
=27	=27	=27
4BB/	4ddd# 4dd#\	.
4a 4f# 4B\	4.ggg# 4.gg#\	.
4a 4f# 4d# 4B\	.	.
.	8fff# 8ff#\	.
=28	=28	=28
4e 4B 4G# 4E\	4eee 4ee\	.
4r	4r	.
4r	4r	.
!!LO:PB:g=original
=29:|!|:	=29:|!|:	=29:|!|:
*>C	*>C	*>C
!	!	!LO:DY:t=p.p.
4E\	(8b\L	pp
.	8ee\	.
4g# 4e 4B\	8gg#\	.
.	8bb\	.
4g# 4e 4B\	8eee\	.
.	8ggg#\J)	.
=30	=30	=30
4BB/	4ggg#tt\	.
4a 4f# 4d# 4B\	4fff#`\	.
4a 4f# 4d# 4B\	4fff#`\	.
=31	=31	=31
4D#/	(8a\L	.
.	8dd#\	.
4f# 4B 4A\	8ff#\	.
.	8aa\	.
4f# 4B 4A\	8ddd#\	.
.	8fff#\J)	.
=32	=32	=32
4E\	4fff#TT\	.
4e 4B 4G#\	4eee`\	.
4e 4B 4G#\	4eee`\	.
=33	=33	=33
4E\	(8g#\L	.
.	8cc#\	.
4e 4c# 4G#\	8ee\	.
.	8gg#\	.
4e 4c# 4G#\	8ccc#\	.
.	8eee\J)	.
!!LO:LB:g=original
=34	=34	=34
4BB/	4eeeTT\	.
4f# 4B 4A\	4ddd#`\	.
4f# 4B 4A\	4ddd#`\	.
=35	=35	=35
4F#\	4ddd#tt\	.
4d# 4B 4A\	4ccc#`\	.
4d# 4B 4A\	4ccc#`\	.
=36	=36	=36
4E\	4ccc#TT\	.
4e 4B 4G#\	4bb`\	.
4e 4B 4G#\	4bb`\	.
=37	=37	=37
4E\	(8b\L	.
.	8ee\	.
4g# 4e 4B\	8gg#\	.
.	8bb\	.
4g# 4e 4B\	8eee\	.
.	8ggg#\J)	.
=38	=38	=38
4BB/	4ggg#tt\	.
4a 4f# 4d# 4B\	4fff#\	.
4a 4f# 4d# 4B\	4fff#\	.
=39	=39	=39
4D#/	(8a\L	.
.	8dd#\	.
4f# 4B 4A\	8ff#\	.
.	8aa\	.
4f# 4B 4A\	8ddd#\	.
.	8fff#\J)	.
!!LO:LB:g=original
=40	=40	=40
4E\	4fff#TT\	.
4e 4B 4G#\	4eee`\	.
4e 4B 4G#\	4eee`\	.
=41	=41	=41
4C#/	(8ee\L	.
.	8gg#\	.
4c# 4G# 4E\	8ccc#\	.
.	8eee\	.
*	*8va	*
4c# 4G# 4E\	8ggg#\	.
.	8eeee\J)	.
=42	=42	=42
4AA/	4dddd#tt\	.
4A 4F# 4C#\	4cccc#`\	.
4A 4F# 4C#\	4cccc#`\	.
=43	=43	=43
4BB/	4cccc#TT\	.
4B 4A 4F#\	4.bbb`\	.
4B 4A 4F#\	.	.
.	8ddd#\	.
=44	=44	=44
!!LO:TX:t=1a
*>C1	*>C1	*>C1
4E\	4eee\	.
4.e 4.B 4.G# 4.E\	4.eeee 4.bbb 4.ggg# 4.eee\	.
8r	8eee\	.
=45:|!	=45:|!	=45:|!
!!LO:TX:t=2a
*>C2	*>C2	*>C2
4G# 4E\	4eee\	.
4.e 4.B 4.G# 4.E\	4.eeee 4.ggg# 4.eee\	.
*	*X8va	*
8r	8r	.
==	==	==
*-	*-	*-
!!!system-decoration: {(*)}
!!!ENC: Filip Voros
!!!END: 2023-07-11
!!!ENC: Marta Lawrence
!!!END: 2023-07-17
!!!YEC: Copyright 2022 Narodowy Instytut Fryderyka Chopina (https://polishscores.org)
!!!YEM: License CC-BY-4.0 (https://creativecommons.org/licenses/by/4.0)
